!!!COM: Schiørring, Niels
!!!CDT: 1743-1798
!!!OPR@@DA: Choral-Bog
!!!ONM: 76
!!!OTL@@DA: Nu hviler Mark og Enge
**kern	**fb	**kern	**kern	**kern	**kern	**kern	**kern	**kern
*part6	*part6	*part6	*part5	*part5	*part4	*part3	*part2	*part1
*staff8	*	*staff7	*staff6	*staff5	*staff4	*staff3	*staff2	*staff1
*clefF4	*	*clefC1	*clefF4	*clefC1	*clefF4	*clefC4	*clefC3	*clefC1
*mclefF4	*	*mclefG2	*mclefF4	*mclefG2	*mclefF4	*mclefGv2	*mclefG2	*mclefG2
*k[b-]	*	*k[b-]	*k[b-]	*k[b-]	*k[b-]	*k[b-]	*k[b-]	*k[b-]
*F:	*	*F:	*F:	*F:	*F:	*F:	*F:	*F:
*M4/4	*	*M4/4	*M4/4	*M4/4	*M4/4	*M4/4	*M4/4	*M4/4
*met(c)	*	*met(c)	*met(c)	*met(c)	*met(c)	*met(c)	*met(c)	*met(c)
*MM180	*	*MM180	*MM180	*MM180	*MM180	*MM180	*MM180	*MM180
*	*above	*	*	*	*	*	*	*
*	*	*	*^	*^	*	*	*	*
=1	=1	=1	=1	=1	=1	=1	=1	=1	=1	=1
2F	.	2a	2c	2F	2a	2f	2F	2c	2f	2a
=2	=2	=2	=2	=2	=2	=2	=2	=2	=2	=2
2B-	.	2f	2B-	2B-	2f	2d	2B-	2d	2f	2f
2G	6	2g	2B-	2G	2g	2e	2G	2B-	2e	2g
=3	=3	=3	=3	=3	=3	=3	=3	=3	=3	=3
2F	.	2a	2c	2F	2a	2f	2F	2c	2f	2a
2AA	6	2cc	2ryy	2AA	2c	2f	2AA	2c	[2f	2cc
=4	=4	=4	=4	=4	=4	=4	=4	=4	=4	=4
2GG	7 5 4	(2cc	2ryy	2GG	2d	2f	(2GG	(2d	(2f]	(2cc
2C	8 7 3	2b-)	2c	2C	2b-	2e	2C)	2c)	2e)	2b-)
=5	=5	=5	=5	=5	=5	=5	=5	=5	=5	=5
2F	.	2a	2c	2F	2a	2f	2F	2c	2f	2a
2D	.	2a	2ryy	2D	2d	2f	2D	2d	2f	2a
=6	=6	=6	=6	=6	=6	=6	=6	=6	=6	=6
2AA	6	2cc	1ryy	2AA	2c	2f	2AA	2c	2f	2cc
2F	.	2cc	.	2F	2c	2a	2F	2c	2a	2cc
=7	=7	=7	=7	=7	=7	=7	=7	=7	=7	=7
2E	6	2g	1ryy	2E	2c	2g	2E	2c	2g	2g
2C	6	2a	.	2C	[2c	2e	2C	[2c	2e	2a
=8	=8	=8	=8	=8	=8	=8	=8	=8	=8	=8
2D	7	1f	1ryy	2D	2c]	1d	(2D	(2c]	1d	1f
2GG	7 n	.	.	2GG	2Bn	.	2GG)	2B)	.	.
=9	=9	=9	=9	=9	=9	=9	=9	=9	=9	=9
2C	.	2e	2G	2C	2e	2c	2C	2G	2c	2e
*	*	*	*	*	*	*	*^	*	*	*
2AA	6	2f	4ryy	2AA	2c	[2f	2A	2AA	2c	(4c	2f
.	.	.	4ryy	.	.	.	.	.	.	[4f)	.
=10	=10	=10	=10	=10	=10	=10	=10	=10	=10	=10	=10
2GG	7	2g	1ryy	2GG	2B-	4f]	2G	2GG	2B-	(4f]	2g
.	6	.	.	.	.	4e	.	.	.	4e)	.
2FF	.	2a	.	2FF	2c	2f	2F	2FF	2c	2f	2a
=11	=11	=11	=11	=11	=11	=11	=11	=11	=11	=11	=11
2EE	5	2b-	1ryy	2EE	2c	2g	2E	2EE	2c	2g	2b-
2FF	.	2a	.	2FF	2c	[2f	2F	2FF	2c	[2f	2a
*	*	*	*	*	*	*	*v	*v	*	*	*
=12	=12	=12	=12	=12	=12	=12	=12	=12	=12	=12
2C	4	2g	4ryy	2C	2c	4f]	2C	2c	(4f]	2g
.	3	.	4ryy	.	.	4e	.	.	4e)	.
2C#X	6	2a	2A	2C#X	2a	2e	2C#X	2A	2e	2a
=13	=13	=13	=13	=13	=13	=13	=13	=13	=13	=13
2D	5	2f	4A	2D	2f	2d	2D	(4A	2d	2f
.	6	.	2B-	.	.	.	.	2B-)	.	.
2E	5	2g	.	2E	2g	2g	2E	.	2g	2g
.	6	.	4cni	.	.	.	.	4c	.	.
=14	=14	=14	=14	=14	=14	=14	=14	=14	=14	=14
2F	8	2a	2c	2F	2a	4f	2F	2c	(4f	2a
.	-7 5_	.	.	.	.	2e-X	.	.	2e-X)	.
2F#X	.	2cc	[2A	2F#X	2cc	.	2F#X	[2A	.	2cc
.	6_	.	.	.	.	4d	.	.	4d	.
=15	=15	=15	=15	=15	=15	=15	=15	=15	=15	=15
2G	9	1b-	2A]	2G	1b-	2d	(2G	(2A]	(2d	1b-
2C#X	7 5	.	[2G	2C#X	.	2eni	2C#X)	4G	4eni	.
.	.	.	.	.	.	.	.	4e)	[4g)	.
=16	=16	=16	=16	=16	=16	=16	=16	=16	=16	=16
2D	4	2a	4G]	2D	2a	2d	2D	2d	(4g]	2a
.	#	.	4F#X	.	.	.	.	.	4f#X)	.
2D	n	2a	2d	2D	2a	2fni	2D	2d	2fn	2a
=17	=17	=17	=17	=17	=17	=17	=17	=17	=17	=17
2E	6	2cc	1c	2E	2cc	2g	2E	2c	2g	2cc
2F	.	2cc	.	2Fni	2cc	2a	2F	2c	2a	2cc
=18	=18	=18	=18	=18	=18	=18	=18	=18	=18	=18
2B-	2	2g	2c	2B-	2g	2e	2B-	2c	2e	2g
2A	6	2a	2c	2A	2a	2f	2A	2c	2f	2a
=19	=19	=19	=19	=19	=19	=19	=19	=19	=19	=19
2Bn	5	1f	2d	2Bn	1f	1d	(2Bn	(2d	1d	1f
2G	7 n	.	2B	2G	.	.	2G)	2B)	.	.
=20	=20	=20	=20	=20	=20	=20	=20	=20	=20	=20
2C	.	2e	2G	2C	2e	2c	2C	2G	2c	2e
*	*	*	*	*	*	*	*^	*	*	*
2BB-Xi	2	2c	2E	2BB-Xi	2c	2G	2B-Xi	2BB-Xi	2E	2G	2c
=21	=21	=21	=21	=21	=21	=21	=21	=21	=21	=21	=21
2AA	6	2f	2.F	2AA	2f	2c	2A	2AA	2.F	2c	2f
2GG	7	2g	.	2GG	2g	2B-	2G	2GG	.	2B-	2g
.	6	.	4E	.	.	.	.	.	4E	.	.
=22	=22	=22	=22	=22	=22	=22	=22	=22	=22	=22	=22
2FF	.	2a	2F	2FF	2a	2c	2F	2FF	2F	2c	2a
*	*	*	*	*	*	*	*v	*v	*	*	*
4D	6	2b-	[2F	4D	2b-	4B-	(4D	2F	(4B-	2b-
4BB-	.	.	.	4BB-	.	4d	4BB-)	.	4d)	.
=23	=23	=23	=23	=23	=23	=23	=23	=23	=23	=23
1C	6 4	2a	2F]	1C	2a	1c	2C	(2F	2c	2a
.	5 3	2g	4E	.	2g	.	2C	4E	2c	2g
.	.	.	4B-	.	.	.	.	4B-)	.	.
=24	=24	=24	=24	=24	=24	=24	=24	=24	=24	=24
2FF	.	2f	2ryy	2FF	2A	2c	2FF	2A	2c	2f
*	*	*	*v	*v	*	*	*	*	*	*
*	*	*	*	*v	*v	*	*	*	*
==	==	==	==	==	==	==	==	==
*-	*-	*-	*-	*-	*-	*-	*-	*-
!!!system-decoration: {(s1,s2,s3,s4)}{(s5,s6)}{(s7,s8)}
!!!RDF**kern: i = editorial accidental
!!!RDF**kern: > = above
!!!RDF**kern: < = below
!!!AGN: chorale
!!!EED: Derek Remeš
!!!EED2: Victor Phan
!!!END: 2023/11/28
!!!ENC: Wolfgang Drescher
!!!EEV: 2023/12/08
!!!title: @{ONM}. @{OTL}
!!!verovio: mnumInterval 1